v2/perps-v2/ui/public/asset-icons/FIL.svg

<?xml version="1.0" encoding="UTF-8"?>
<svg width="300px" height="300.006165px" viewBox="0 0 300 300.006165" version="1.1" xmlns="http://www.w3.org/2000/svg" xmlns:xlink="http://www.w3.org/1999/xlink">
    <title>Filecoin</title>
    <g id="Page-1" stroke="none" stroke-width="1" fill="none" fill-rule="evenodd">
        <g id="Artboard" transform="translate(-561.000000, -2345.000000)" fill-rule="nonzero">
            <g id="Filecoin" transform="translate(561.000000, 2345.000000)">
                <path d="M150,300.006165 C67.5,300.006165 0,232.506182 0,149.256184 C0.750000011,66.7561879 67.5,-0.743809793 150.750003,0.00619018011 C233.250003,0.756190153 300,67.5061978 300,151.506192 C299.25,233.256185 232.5,300.006165 150,300.006165 Z" id="Vector" fill="#0090FF"></path>
                <path d="M164.250122,132.006078 L159.750119,156.006068 L202.500122,162.006077 L199.500122,173.256076 L157.500122,167.256068 C154.500122,177.006067 153.000122,187.506078 149.250122,196.506078 C145.500122,207.006077 141.750119,217.506066 137.250119,227.256065 C131.250119,240.006064 120.750123,249.006069 106.500122,251.256069 C98.2501233,252.756069 89.2501248,252.006081 82.5001221,246.756081 C80.2501248,245.256081 78.0001221,242.25607 78.0001221,240.00607 C78.0001221,237.00607 79.5001221,233.256067 81.7501221,231.756067 C83.2501221,231.006067 87.0001221,231.75607 89.2501221,232.50607 C91.5001221,234.75607 93.7501235,237.756058 95.2501235,240.756058 C99.7501237,246.756058 105.750122,247.506081 111.750122,243.006081 C118.500122,237.006081 122.250128,228.756068 124.500122,220.506068 C129.000122,202.506068 133.500122,185.256068 137.250119,167.256068 L137.250119,164.256071 L97.5001221,158.256077 L99.0001221,147.006077 L140.250131,153.006071 L145.500122,129.75607 L102.750124,123.006073 L104.250122,111.006078 L148.500122,117.006079 C150.000122,112.506079 150.750119,108.75608 152.250119,105.00608 C156.000122,91.5060813 159.750125,78.0060833 168.750125,66.0060837 C177.750125,54.0060842 188.250131,46.506084 204.000122,47.256084 C210.75013,47.256084 217.500122,49.5060838 222.000122,54.7560834 C222.750128,55.5060834 224.250122,57.0060833 224.250122,58.5060832 C224.250122,61.5060831 224.250122,65.2560822 222.000122,67.5060822 C219.000122,69.7560822 215.250119,69.0060836 212.250119,66.0060837 C210.000122,63.7560837 208.500122,61.5060824 206.250125,59.2560825 C201.750125,53.2560827 195.000122,52.5060807 189.750119,57.7560804 C186.000122,61.5060802 182.250125,66.7560852 180.000122,72.0060848 C174.750125,87.7560833 171.000122,104.256079 165.750128,120.756079 L207.000122,126.756073 L204.000122,138.006072 L164.250122,132.006078" id="Vector" fill="#FFFFFF"></path>
            </g>
        </g>
    </g>
</svg>

<svg xmlns="http://www.w3.org/2000/svg" width="300" height="300.006"><g fill="none" fill-rule="nonzero"><path fill="#0090FF" d="M150 300.006c-82.5 0-150-67.5-150-150.75.75-82.5 67.5-150 150.75-149.25 82.5.75 149.25 67.5 149.25 151.5-.75 81.75-67.5 148.5-150 148.5Z"/><path fill="#FFF" d="m164.25 132.006-4.5 24 42.75 6-3 11.25-42-6c-3 9.75-4.5 20.25-8.25 29.25-3.75 10.5-7.5 21-12 30.75-6 12.75-16.5 21.75-30.75 24-8.25 1.5-17.25.75-24-4.5-2.25-1.5-4.5-4.5-4.5-6.75 0-3 1.5-6.75 3.75-8.25 1.5-.75 5.25 0 7.5.75 2.25 2.25 4.5 5.25 6 8.25 4.5 6 10.5 6.75 16.5 2.25 6.75-6 10.5-14.25 12.75-22.5 4.5-18 9-35.25 12.75-53.25v-3l-39.75-6 1.5-11.25 41.25 6 5.25-23.25-42.75-6.75 1.5-12 44.25 6c1.5-4.5 2.25-8.25 3.75-12 3.75-13.5 7.5-27 16.5-39s19.5-19.5 35.25-18.75c6.75 0 13.5 2.25 18 7.5.75.75 2.25 2.25 2.25 3.75 0 3 0 6.75-2.25 9-3 2.25-6.75 1.5-9.75-1.5-2.25-2.25-3.75-4.5-6-6.75-4.5-6-11.25-6.75-16.5-1.5-3.75 3.75-7.5 9-9.75 14.25-5.25 15.75-9 32.25-14.25 48.75l41.25 6-3 11.25-39.75-6"/></g></svg>
